assets/img/hero-logo.svg

<svg width="848" height="216" fill="none" xmlns="http://www.w3.org/2000/svg"><path d="M47.532 168.468h27.677c32.791 0 59.565-18.953 59.565-61.671 0-42.719-26.774-61.972-59.565-61.972H47.532v123.643Zm29.482 44.824H0V0h77.315c64.078 0 107.097 40.914 107.097 106.797S141.393 213.292 77.014 213.292ZM353.658 213.292H218.282V0h135.075v44.825h-87.543v40.612h79.421v41.816h-79.421v40.914h87.844v45.125ZM478.773 150.117 529.614 0h50.541l-77.917 213.292h-49.036L374.985 0h52.345l51.443 150.117ZM563.366 185.014c0-16.847 13.839-30.685 30.686-30.685 16.846 0 30.986 13.838 30.986 30.685 0 16.546-14.14 30.986-30.986 30.986-16.847 0-30.686-14.44-30.686-30.986Z" fill="#000"/><path d="m846.669 0-68.59 107.097 69.192 106.195H789.51L747.393 144.1l-41.816 69.192h-55.955l68.891-106.796L649.622 0h57.159l42.117 69.192L791.015 0h55.654Z" fill="#7000FF"/></svg>

<svg width="848" height="216" viewBox="0 0 848 216" fill="none" xmlns="http://www.w3.org/2000/svg">
<path d="M47.532 168.468H75.2089C108 168.468 134.774 149.515 134.774 106.797C134.774 64.078 108 44.8245 75.2089 44.8245H47.532V168.468ZM77.0139 213.292H0V0H77.3148C141.393 0 184.412 40.9137 184.412 106.797C184.412 172.68 141.393 213.292 77.0139 213.292Z" fill="black"/>
<path d="M353.658 213.292H218.282V0H353.357V44.8245H265.814V85.4373H345.235V127.253H265.814V168.167H353.658V213.292Z" fill="black"/>
<path d="M478.773 150.117L529.614 0H580.155L502.238 213.292H453.202L374.985 0H427.33L478.773 150.117Z" fill="black"/>
<path d="M563.366 185.014C563.366 168.167 577.205 154.329 594.052 154.329C610.898 154.329 625.038 168.167 625.038 185.014C625.038 201.56 610.898 216 594.052 216C577.205 216 563.366 201.56 563.366 185.014Z" fill="black"/>
<path d="M846.669 0L778.079 107.097L847.271 213.292H789.51L747.393 144.1L705.577 213.292H649.622L718.513 106.496L649.622 0H706.781L748.898 69.1922L791.015 0H846.669Z" fill="#7000FF"/>
</svg>
